X:3
T:O'Carolan's ramble to Cashel
C:Turlough O'Carolan
M:3/4
K:Em
def|:"Em"g2ga ba|"Em(d)*"g2fg af|"C"e2B2e2|
"Bm"d4gf|"C"edc BAG|"Am"G3FGA|"Bm"B3GF2|
"Em"E3def::"Em"g4b2|"C"b3ag2|"D"f2de fg|
"Bm"a3gf2|"C"g2ga ba|"Am"g2fg af|"Em"e2B2e2|
"Bm"d4d2|"Em"ef ed BA|"Bm"BA Bd ef|"Em"gf ga ba|
"Em(d)"g2fg af|"C"e2B2e2|"Bm"d4gf|"C"ed cB AG|
"Am"G3F GA|"Bm"B3GF2|1"Em"E3d ef:|2"Em"E3d gf|
"C"ed cB AG|"Am"G3F GA|"Bm"B2G2F2|"Em"E3"*Em(d)=Em with D-bass"|
